Themes/OneUI/assets/svg/account_linking.svg

<?xml version="1.0" encoding="UTF-8" standalone="no"?>
<svg
   width="32.000385"
   height="32.000385"
   viewBox="0 0 32.000385 32.000385"
   fill="none"
   version="1.1"
   id="svg28"
   sodipodi:docname="account_linking.svg"
   xmlns:inkscape="http://www.inkscape.org/namespaces/inkscape"
   xmlns:sodipodi="http://sodipodi.sourceforge.net/DTD/sodipodi-0.dtd"
   xmlns="http://www.w3.org/2000/svg"
   xmlns:svg="http://www.w3.org/2000/svg">
  <sodipodi:namedview
     id="namedview30"
     pagecolor="#ffffff"
     bordercolor="#666666"
     borderopacity="1.0"
     inkscape:showpageshadow="2"
     inkscape:pageopacity="0.0"
     inkscape:pagecheckerboard="0"
     inkscape:deskcolor="#d1d1d1" />
  <g
     clip-path="url(#clip0_1_475)"
     id="g21">
    <path
       d="m 28.4072,3.59315 c -1.973,-1.854 -4.665,-2.905999 -7.637,-3.298999 -2.838,-0.3770004 -4.77,-0.2840004 -4.77,-0.2840004 0,0 -1.933,-0.093 -4.77,0.2840004 -2.97201,0.393 -5.66401,1.444999 -7.63701,3.298999 -1.854,1.972 -2.906003,4.665 -3.300003,7.63705 -0.3760002,2.837 -0.2830002,4.77 -0.2830002,4.77 0,0 -0.093,1.932 0.2830002,4.77 0.394,2.971 1.446003,5.664 3.300003,7.637 1.973,1.854 4.665,2.906 7.63701,3.3 2.837,0.376 4.77,0.283 4.77,0.283 0,0 1.932,0.093 4.77,-0.283 2.972,-0.394 5.664,-1.446 7.636,-3.3 1.855,-1.973 2.907,-4.666 3.301,-7.637 0.376,-2.838 0.283,-4.77 0.283,-4.77 0,0 0.093,-1.933 -0.283,-4.77 -0.394,-2.97205 -1.446,-5.66505 -3.3,-7.63705 z"
       fill="#83ccdf"
       id="path17" />
    <path
       d="m 16.061,21.503 -1.238,1.237 c -1.555,1.556 -4.101,1.556 -5.65699,0 -1.555,-1.555 -1.555,-4.101 0,-5.656 L 11.642,14.608 c 1.555,-1.555 4.101,-1.555 5.656,0 m -1.452,-4.204 1.237,-1.237 c 1.556,-1.556 4.102,-1.556 5.658,0 1.555,1.555 1.555,4.101 0,5.656 l -2.476,2.476 c -1.555,1.555 -4.101,1.555 -5.656,0"
       stroke="#ffffff"
       stroke-width="1.5"
       stroke-linecap="round"
       stroke-linejoin="round"
       id="path19" />
  </g>
  <defs
     id="defs26">
    <clipPath
       id="clip0_1_475">
      <rect
         width="32"
         height="32"
         fill="#ffffff"
         id="rect23"
         x="0"
         y="0" />
    </clipPath>
  </defs>
</svg>

<svg width="32" height="32" viewBox="0 0 32 32" fill="none" xmlns="http://www.w3.org/2000/svg">
<g clip-path="url(#clip0_1_475)">
<path d="M28.4072 3.59315C26.4342 1.73915 23.7422 0.687151 20.7702 0.294151C17.9322 -0.0828494 16.0002 0.0101506 16.0002 0.0101506C16.0002 0.0101506 14.0672 -0.0828494 11.2302 0.294151C8.25819 0.687151 5.56619 1.73915 3.59319 3.59315C1.73919 5.56515 0.687187 8.25815 0.293187 11.2302C-0.0828132 14.0672 0.0101868 16.0002 0.0101868 16.0002C0.0101868 16.0002 -0.0828132 17.9322 0.293187 20.7702C0.687187 23.7412 1.73919 26.4342 3.59319 28.4072C5.56619 30.2612 8.25819 31.3132 11.2302 31.7072C14.0672 32.0832 16.0002 31.9902 16.0002 31.9902C16.0002 31.9902 17.9322 32.0832 20.7702 31.7072C23.7422 31.3132 26.4342 30.2612 28.4062 28.4072C30.2612 26.4342 31.3132 23.7412 31.7072 20.7702C32.0832 17.9322 31.9902 16.0002 31.9902 16.0002C31.9902 16.0002 32.0832 14.0672 31.7072 11.2302C31.3132 8.25815 30.2612 5.56515 28.4072 3.59315Z" fill="#83CCDF"/>
<path d="M16.061 21.503L14.823 22.74C13.268 24.296 10.722 24.296 9.16601 22.74C7.61101 21.185 7.61101 18.639 9.16601 17.084L11.642 14.608C13.197 13.053 15.743 13.053 17.298 14.608M15.846 10.404L17.083 9.167C18.639 7.611 21.185 7.611 22.741 9.167C24.296 10.722 24.296 13.268 22.741 14.823L20.265 17.299C18.71 18.854 16.164 18.854 14.609 17.299" stroke="white" stroke-width="1.5" stroke-linecap="round" stroke-linejoin="round"/>
</g>
<defs>
<clipPath id="clip0_1_475">
<rect width="32" height="32" fill="white"/>
</clipPath>
</defs>
</svg>
